icons/svg/shopping/gift.svg

<?xml version="1.0" encoding="UTF-8" standalone="no"?>
<!-- Created with Inkscape (http://www.inkscape.org/) -->

<svg
   xmlns:dc="http://purl.org/dc/elements/1.1/"
   xmlns:cc="http://creativecommons.org/ns#"
   xmlns:rdf="http://www.w3.org/1999/02/22-rdf-syntax-ns#"
   xmlns:svg="http://www.w3.org/2000/svg"
   xmlns="http://www.w3.org/2000/svg"
   xmlns:sodipodi="http://sodipodi.sourceforge.net/DTD/sodipodi-0.dtd"
   xmlns:inkscape="http://www.inkscape.org/namespaces/inkscape"
   version="1.0"
   width="580"
   height="580"
   id="svg2"
   sodipodi:version="0.32"
   inkscape:version="0.48.4 r9939"
   sodipodi:docname="gift.svg"
   inkscape:output_extension="org.inkscape.output.svg.inkscape">
  <metadata
     id="metadata2975">
    <rdf:RDF>
      <cc:Work
         rdf:about="">
        <dc:format>image/svg+xml</dc:format>
        <dc:type
           rdf:resource="http://purl.org/dc/dcmitype/StillImage" />
        <cc:license
           rdf:resource="http://web.resource.org/cc/PublicDomain" />
        <dc:language>en</dc:language>
        <dc:title />
      </cc:Work>
    </rdf:RDF>
  </metadata>
  <sodipodi:namedview
     inkscape:window-height="1004"
     inkscape:window-width="1920"
     inkscape:pageshadow="2"
     inkscape:pageopacity="0.0"
     guidetolerance="10.0"
     gridtolerance="10.0"
     objecttolerance="10.0"
     borderopacity="1.0"
     bordercolor="#666666"
     pagecolor="#ffffff"
     id="base"
     inkscape:zoom="0.92167712"
     inkscape:cx="550.64092"
     inkscape:cy="343.5523"
     inkscape:window-x="1680"
     inkscape:window-y="0"
     inkscape:current-layer="svg2"
     showgrid="false"
     inkscape:window-maximized="1"
     showguides="true"
     inkscape:guide-bbox="true" />
  <defs
     id="defs4">
    <inkscape:perspective
       sodipodi:type="inkscape:persp3d"
       inkscape:vp_x="0 : 290 : 1"
       inkscape:vp_y="6.1230318e-14 : 1000 : 0"
       inkscape:vp_z="580 : 290 : 1"
       inkscape:persp3d-origin="290 : 193.33333 : 1"
       id="perspective2441" />
    <inkscape:perspective
       id="perspective3452"
       inkscape:persp3d-origin="30 : 20 : 1"
       inkscape:vp_z="60 : 30 : 1"
       inkscape:vp_y="0 : 1000 : 0"
       inkscape:vp_x="0 : 30 : 1"
       sodipodi:type="inkscape:persp3d" />
    <symbol
       viewBox="244.5 110 489 219.9"
       id="symbol-university">
      <path
         id="path4460"
         d="M79,43l57,119c0,0,21-96,104-96s124,106,124,106l43-133l82-17L0,17L79,43z" />
      <path
         id="path4462"
         d="M94,176l-21,39"
         stroke-width="20"
         stroke="#000000"
         fill="none" />
      <path
         id="path4464"
         d="M300,19c0,10.5-22.6,19-50.5,19S199,29.5,199,19s22.6-19,50.5-19S300,8.5,300,19z" />
      <path
         id="path4466"
         d="M112,216l-16-38L64,88c0,0-9-8-4-35s16-24,16-24"
         stroke-width="20"
         stroke="#000000"
         ill="none" />
    </symbol>
    <inkscape:perspective
       id="perspective4471"
       inkscape:persp3d-origin="372.04724 : 350.78739 : 1"
       inkscape:vp_z="744.09448 : 526.18109 : 1"
       inkscape:vp_y="0 : 1000 : 0"
       inkscape:vp_x="0 : 526.18109 : 1"
       sodipodi:type="inkscape:persp3d" />
    <inkscape:perspective
       id="perspective4668"
       inkscape:persp3d-origin="6 : 4 : 1"
       inkscape:vp_z="12 : 6 : 1"
       inkscape:vp_y="0 : 1000 : 0"
       inkscape:vp_x="0 : 6 : 1"
       sodipodi:type="inkscape:persp3d" />
    <inkscape:perspective
       id="perspective3826"
       inkscape:persp3d-origin="0.5 : 0.33333333 : 1"
       inkscape:vp_z="1 : 0.5 : 1"
       inkscape:vp_y="0 : 1000 : 0"
       inkscape:vp_x="0 : 0.5 : 1"
       sodipodi:type="inkscape:persp3d" />
    <inkscape:perspective
       id="perspective3855"
       inkscape:persp3d-origin="0.5 : 0.33333333 : 1"
       inkscape:vp_z="1 : 0.5 : 1"
       inkscape:vp_y="0 : 1000 : 0"
       inkscape:vp_x="0 : 0.5 : 1"
       sodipodi:type="inkscape:persp3d" />
    <inkscape:perspective
       id="perspective3909"
       inkscape:persp3d-origin="0.5 : 0.33333333 : 1"
       inkscape:vp_z="1 : 0.5 : 1"
       inkscape:vp_y="0 : 1000 : 0"
       inkscape:vp_x="0 : 0.5 : 1"
       sodipodi:type="inkscape:persp3d" />
    <inkscape:perspective
       id="perspective3950"
       inkscape:persp3d-origin="0.5 : 0.33333333 : 1"
       inkscape:vp_z="1 : 0.5 : 1"
       inkscape:vp_y="0 : 1000 : 0"
       inkscape:vp_x="0 : 0.5 : 1"
       sodipodi:type="inkscape:persp3d" />
    <inkscape:perspective
       id="perspective3972"
       inkscape:persp3d-origin="0.5 : 0.33333333 : 1"
       inkscape:vp_z="1 : 0.5 : 1"
       inkscape:vp_y="0 : 1000 : 0"
       inkscape:vp_x="0 : 0.5 : 1"
       sodipodi:type="inkscape:persp3d" />
    <inkscape:perspective
       id="perspective3994"
       inkscape:persp3d-origin="0.5 : 0.33333333 : 1"
       inkscape:vp_z="1 : 0.5 : 1"
       inkscape:vp_y="0 : 1000 : 0"
       inkscape:vp_x="0 : 0.5 : 1"
       sodipodi:type="inkscape:persp3d" />
    <inkscape:perspective
       id="perspective4016"
       inkscape:persp3d-origin="0.5 : 0.33333333 : 1"
       inkscape:vp_z="1 : 0.5 : 1"
       inkscape:vp_y="0 : 1000 : 0"
       inkscape:vp_x="0 : 0.5 : 1"
       sodipodi:type="inkscape:persp3d" />
    <inkscape:perspective
       id="perspective4837"
       inkscape:persp3d-origin="0.5 : 0.33333333 : 1"
       inkscape:vp_z="1 : 0.5 : 1"
       inkscape:vp_y="0 : 1000 : 0"
       inkscape:vp_x="0 : 0.5 : 1"
       sodipodi:type="inkscape:persp3d" />
    <inkscape:perspective
       id="perspective4971"
       inkscape:persp3d-origin="0.5 : 0.33333333 : 1"
       inkscape:vp_z="1 : 0.5 : 1"
       inkscape:vp_y="0 : 1000 : 0"
       inkscape:vp_x="0 : 0.5 : 1"
       sodipodi:type="inkscape:persp3d" />
  </defs>
  <g
     id="g1327">
    <path
       d="M 66.275,1.768 C 24.94,1.768 1.704,23.139 1.704,66.804 L 1.704,516.927 C 1.704,557.771 22.599,579.156 63.896,579.156 L 515.92,579.156 C 557.227,579.156 578.149,558.841 578.149,516.927 L 578.149,66.804 C 578.149,24.203 557.227,1.768 514.628,1.768 C 514.624,1.768 66.133,1.625 66.275,1.768 z "
       style="fill:#111;stroke:#eee;stroke-width:3.40799999"
       id="path1329" />
  </g>
  <path
     style="fill:#ffffff;fill-opacity:1;fill-rule:evenodd;stroke:#ffffff;stroke-width:18.03055191;stroke-linecap:round;stroke-linejoin:round;stroke-miterlimit:4;stroke-dasharray:none;stroke-opacity:1"
     d="M 27.242741,-248.97792 L 39.548641,-228.79084 L 152.86371,-184.08575 L 151.87803,-241.06807 L 40.287901,-263.53323 L 27.242741,-248.97792 z"
     id="path3289"
     sodipodi:nodetypes="cccccc" />
  <g
     id="g3338"
     transform="matrix(1.3973279,-0.2437849,0.2437849,1.3973279,-185.07402,-56.183307)" />
  <path
     inkscape:connector-curvature="0"
     style="fill:#ffffff;fill-opacity:1;stroke:#ffffff;stroke-width:6.65240908;stroke-linecap:round;stroke-linejoin:round;stroke-miterlimit:4;stroke-opacity:1;stroke-dasharray:none;stroke-dashoffset:0"
     d="m 341.66434,228.9307 c -0.0711,0.0925 -0.13211,0.19326 -0.20381,0.28533 -1.45225,1.86483 -3.01935,3.62461 -4.72843,5.2991 -1.71224,1.9091 -3.53974,3.66397 -5.46215,5.25834 -1.92242,1.59438 -3.93391,3.03435 -6.03282,4.32081 -2.09892,1.28646 -4.28024,2.39792 -6.52197,3.38327 -1.26078,0.55417 -2.57479,0.96607 -3.87242,1.42668 l 0,93.6718 190.15618,0 0,-96.64745 c 0,-9.41807 -7.5798,-16.99788 -16.99788,-16.99788 l -146.3367,0 z m 163.33458,113.64533 0,53.80625 0,-53.80625 z m 0,53.80625 -190.15618,0 0,109.48757 173.1583,0 c 9.41808,0 16.99788,-7.57981 16.99788,-16.99789 l 0,-92.48968 z m -190.15618,0 0,-53.80625 0,53.80625 z"
     id="path16658"
     sodipodi:nodetypes="cscssscccccccccccccccccc" />
  <path
     inkscape:connector-curvature="0"
     style="fill:#ffffff;fill-opacity:1;stroke:#ffffff;stroke-width:6.65240908;stroke-linecap:round;stroke-linejoin:round;stroke-miterlimit:4;stroke-opacity:1;stroke-dasharray:none;stroke-dashoffset:0"
     d="m 87.51132,228.9307 c -9.418077,0 -16.997885,7.57981 -16.997885,16.99788 l 0,96.64745 197.208065,0 0,-95.30229 c -2.13967,-0.88574 -4.24903,-1.87499 -6.27739,-2.97565 -2.17216,-1.17868 -4.26548,-2.45384 -6.2774,-3.87242 -2.01192,-1.41858 -3.97021,-2.99523 -5.78825,-4.6469 -1.81804,-1.65168 -3.50481,-3.38038 -5.09529,-5.25834 -0.42375,-0.50035 -0.77602,-1.07362 -1.1821,-1.58973 l -155.58975,0 z m 180.21018,113.64533 0,53.80625 0,-53.80625 z m 0,53.80625 -197.208065,0 0,92.48968 c 0,9.41808 7.579808,16.99789 16.997885,16.99789 l 180.21018,0 0,-109.48757 z m -197.208065,0 0,-53.80625 0,53.80625 z"
     id="path16654"
     sodipodi:nodetypes="cccccsssscccccccccccccc" />
  <path
     sodipodi:type="arc"
     style="fill:#ffffff;fill-opacity:1;stroke:none;stroke-width:5.09999990000000025;stroke-linecap:round;stroke-linejoin:round;stroke-miterlimit:4;stroke-opacity:1;stroke-dasharray:none;stroke-dashoffset:0"
     id="path16082"
     sodipodi:cx="265.81976"
     sodipodi:cy="152.51842"
     sodipodi:rx="28.209444"
     sodipodi:ry="28.209444"
     d="m 294.02921,152.51842 a 28.209444,28.209444 0 1 1 -56.41889,0 28.209444,28.209444 0 1 1 56.41889,0 z"
     transform="matrix(1.2973952,0,0,1.2973952,-52.529478,-12.608374)" />
  <g
     id="g16617"
     transform="matrix(1.1028848,0,0,1.1028848,39.577232,55.536899)"
     style="stroke:none">
    <path
       inkscape:connector-curvature="0"
       sodipodi:nodetypes="cccccc"
       id="path16086"
       d="m 424.25,28.15625 c -34.32524,-0.296758 -116.36695,30.824911 -145.11883,62.893777 7.04307,3.773083 18.53258,5.987954 37.52508,4.543723 37.45567,-24.230959 90.99282,-44.720907 124.40625,-40.46875 7.97072,-9.779895 0.4783,-20.250619 -4.40625,-23.84375 -2.31811,-2.072599 -6.61724,-3.074951 -12.40625,-3.125 z"
       style="fill:#ffffff;stroke:none;stroke-width:1.51656674999999996px;stroke-linecap:butt;stroke-linejoin:miter;stroke-opacity:1" />
    <path
       inkscape:connector-curvature="0"
       sodipodi:nodetypes="csscc"
       id="path16105"
       d="m 281.5421,135.40077 c -2.87389,2.05278 132.11696,-3.13695 169.0639,-45.511926 24.89468,-28.552052 -21.37496,-70.038338 -7.25008,-55.384578 38.36727,39.80386 -136.3038,76.053714 -163.45926,59.760447 8.71721,13.712017 8.27231,27.424037 1.64544,41.136057 z"
       style="fill:#ffffff;stroke:none" />
  </g>
  <g
     transform="matrix(-1.1028848,0,0,1.1028848,547.918,53.903027)"
     id="g16621"
     style="stroke:none">
    <path
       inkscape:connector-curvature="0"
       style="fill:#ffffff;stroke:none;stroke-width:1.51656674999999996px;stroke-linecap:butt;stroke-linejoin:miter;stroke-opacity:1"
       d="m 424.25,28.15625 c -34.32524,-0.296758 -116.36695,30.824911 -145.11883,62.893777 7.04307,3.773083 18.53258,5.987954 37.52508,4.543723 37.45567,-24.230959 90.99282,-44.720907 124.40625,-40.46875 7.97072,-9.779895 0.4783,-20.250619 -4.40625,-23.84375 -2.31811,-2.072599 -6.61724,-3.074951 -12.40625,-3.125 z"
       id="path16623"
       sodipodi:nodetypes="cccccc" />
    <path
       inkscape:connector-curvature="0"
       style="fill:#ffffff;stroke:none"
       d="m 281.5421,135.40077 c -2.87389,2.05278 132.11696,-3.13695 169.0639,-45.511926 24.89468,-28.552052 -21.37496,-70.038338 -7.25008,-55.384578 38.36727,39.80386 -136.3038,76.053714 -163.45926,59.760447 8.71721,13.712017 8.27231,27.424037 1.64544,41.136057 z"
       id="path16625"
       sodipodi:nodetypes="csscc" />
  </g>
  <path
     inkscape:connector-curvature="0"
     style="opacity:0.98999999;fill:none;stroke:#ffffff;stroke-width:6.65240908;stroke-linecap:butt;stroke-linejoin:miter;stroke-miterlimit:4;stroke-opacity:1;stroke-dasharray:none"
     d="m 240.68965,505.95859 101.89726,0"
     id="path16691" />
</svg>

<svg width="580" height="580" viewBox="0 0 580 580" fill="none" xmlns="http://www.w3.org/2000/svg">
<g clip-path="url(#clip0)">
<path d="M66.2751 1.76863C24.9401 1.76863 1.7041 23.1396 1.7041 66.8046V516.928C1.7041 557.772 22.5991 579.157 63.8961 579.157H515.92C557.227 579.157 578.149 558.842 578.149 516.928V66.8046C578.149 24.2036 557.227 1.76863 514.628 1.76863C514.624 1.76863 66.1331 1.62563 66.2751 1.76863Z" fill="#111111" stroke="#EEEEEE" stroke-width="3.408"/>
<path d="M341.664 228.932C341.593 229.024 341.532 229.125 341.461 229.217C340.008 231.082 338.441 232.842 336.732 234.516C335.02 236.425 333.192 238.18 331.27 239.774C329.348 241.369 327.336 242.809 325.237 244.095C323.138 245.382 320.957 246.493 318.715 247.479C317.454 248.033 316.14 248.445 314.843 248.905V342.577H504.999V245.93C504.999 236.511 497.419 228.932 488.001 228.932H341.664ZM504.999 342.577V396.383V342.577ZM504.999 396.383H314.843V505.871H488.001C497.419 505.871 504.999 498.291 504.999 488.873V396.383ZM314.843 396.383V342.577V396.383Z" fill="white" stroke="white" stroke-width="6.65241" stroke-linecap="round" stroke-linejoin="round"/>
<path d="M87.5116 228.932C78.0935 228.932 70.5137 236.511 70.5137 245.93V342.577H267.722V247.275C265.582 246.389 263.473 245.4 261.444 244.299C259.272 243.12 257.179 241.845 255.167 240.427C253.155 239.008 251.197 237.431 249.379 235.78C247.561 234.128 245.874 232.399 244.283 230.521C243.86 230.021 243.507 229.448 243.101 228.932H87.5116V228.932ZM267.722 342.577V396.383V342.577ZM267.722 396.383H70.5137V488.873C70.5137 498.291 78.0935 505.871 87.5116 505.871H267.722V396.383ZM70.5137 396.383V342.577V396.383Z" fill="white" stroke="white" stroke-width="6.65241" stroke-linecap="round" stroke-linejoin="round"/>
<path d="M328.943 185.269C328.943 194.975 325.087 204.284 318.223 211.148C311.36 218.012 302.051 221.868 292.344 221.868C282.637 221.868 273.328 218.012 266.465 211.148C259.601 204.284 255.745 194.975 255.745 185.269C255.745 175.562 259.601 166.253 266.465 159.389C273.328 152.526 282.637 148.67 292.344 148.67C302.051 148.67 311.36 152.526 318.223 159.389C325.087 166.253 328.943 175.562 328.943 185.269V185.269Z" fill="white"/>
<path d="M507.476 86.5902C469.619 86.2629 379.137 120.587 347.427 155.955C355.194 160.116 367.866 162.559 388.813 160.966C430.122 134.242 489.167 111.644 526.018 116.334C534.809 105.548 526.546 93.9995 521.159 90.0367C518.602 87.7509 513.861 86.6454 507.476 86.5902Z" fill="white"/>
<path d="M350.086 204.869C346.916 207.133 495.795 201.41 536.544 154.675C564 123.185 512.97 77.4306 528.548 93.592C570.862 137.491 378.22 177.471 348.271 159.501C357.885 174.624 357.394 189.746 350.086 204.869Z" fill="white"/>
<path d="M80.019 84.9554C117.876 84.6282 208.358 118.952 240.068 154.32C232.301 158.481 219.629 160.924 198.683 159.331C157.373 132.607 98.3279 110.009 61.4768 114.699C52.686 103.913 60.9492 92.3648 66.3363 88.402C68.893 86.1161 73.6344 85.0106 80.019 84.9554Z" fill="white"/>
<path d="M237.409 203.234C240.579 205.498 91.6996 199.775 50.9514 153.04C23.4954 121.55 74.5255 75.7959 58.9474 91.9573C16.6327 135.856 209.275 175.836 239.224 157.866C229.61 172.989 230.101 188.112 237.409 203.234Z" fill="white"/>
<path opacity="0.99" d="M240.689 505.959H342.587" stroke="white" stroke-width="6.65241"/>
</g>
<defs>
<clipPath id="clip0">
<path d="M0 0H580V580H0V0Z" fill="white"/>
</clipPath>
</defs>
</svg>
